X: 30
T:Cafe Waltz
M:3/4
L:1/4
C:Eric Elsener
N:Posted to the woodenflute list 26/11/2003
R:Waltz
Z:Steve Mansfield May 2001
K:G
B2 G | EFG | AGF | DEF | GFG | A^GA | B^AB | A3 |
B2 G | EFG | A G/A/G/F/ | DEF | GFG | A^GA |
B ^A =A | G3 :: D2 G | EcB | Adc | B>A G/E/ |
D2 G | EcB | A>G F |1 G3 :|2 G2 |
L:1/8
| A2 | BGEG BG | BGEG BG | cAFD FA | cAFD FA |
BGEG BG | BGEG BG | cAFD FA |1 G4 :|2 G6 ||
<end>
<start>
